img/ourServices/ourServis-icon1.svg

<svg width="49" height="48" viewBox="0 0 49 48" fill="none" xmlns="http://www.w3.org/2000/svg">
<rect x="0.642822" width="48" height="48" rx="10" fill="#EDFFF9"/>
<path d="M12.0762 28.3083C11.837 28.3083 11.6428 28.1229 11.6428 27.8945V13.2414C11.6428 12.557 12.2261 12 12.9428 12H36.3428C37.0596 12 37.6428 12.557 37.6428 13.2414V17.3063C37.6428 17.5347 37.4487 17.7201 37.2095 17.7201C36.9703 17.7201 36.7762 17.5347 36.7762 17.3063V13.2414C36.7762 13.0138 36.5812 12.8276 36.3428 12.8276H12.9428C12.7045 12.8276 12.5095 13.0138 12.5095 13.2414V27.8945C12.5095 28.1229 12.3154 28.3083 12.0762 28.3083Z" fill="#4AC8AE" stroke="#4AC8AE" stroke-width="0.6"/>
<path d="M24.6429 36H19.8762C19.637 36 19.4429 35.8146 19.4429 35.5862C19.4429 35.3578 19.637 35.1724 19.8762 35.1724H20.7429C21.4596 35.1724 22.0429 34.6154 22.0429 33.931V31.862C22.0429 31.6336 22.237 31.4482 22.4762 31.4482C22.7154 31.4482 22.9095 31.6336 22.9095 31.862V33.931C22.9095 34.3969 22.7475 34.8264 22.4753 35.1724H24.6429C24.8821 35.1724 25.0762 35.3578 25.0762 35.5862C25.0762 35.8146 24.8821 36 24.6429 36Z" fill="#4AC8AE" stroke="#4AC8AE" stroke-width="0.6"/>
<path d="M25.6539 31.8621H12.9428C12.2261 31.8621 11.6428 31.3051 11.6428 30.6207V28.1379C11.6428 27.9095 11.837 27.7241 12.0762 27.7241H25.6539C25.8931 27.7241 26.0873 27.9095 26.0873 28.1379C26.0873 28.3663 25.8931 28.5517 25.6539 28.5517H12.5095V30.6207C12.5095 30.8483 12.7045 31.0345 12.9428 31.0345H25.6539C25.8931 31.0345 26.0873 31.2198 26.0873 31.4483C26.0873 31.6767 25.8931 31.8621 25.6539 31.8621Z" fill="#4AC8AE" stroke="#4AC8AE" stroke-width="0.6"/>
<path d="M29.4094 17.7932H33.7427C33.9819 17.7932 34.1761 17.6078 34.1761 17.3794C34.1761 17.151 33.9819 16.9656 33.7427 16.9656H29.4094C29.1702 16.9656 28.9761 17.151 28.9761 17.3794C28.9761 17.6078 29.1702 17.7932 29.4094 17.7932Z" fill="#4AC8AE" stroke="#4AC8AE" stroke-width="0.6"/>
<path d="M31.1428 34.3448H32.0095C32.2487 34.3448 32.4428 34.1594 32.4428 33.931C32.4428 33.7026 32.2487 33.5172 32.0095 33.5172H31.1428C30.9036 33.5172 30.7095 33.7026 30.7095 33.931C30.7095 34.1594 30.9036 34.3448 31.1428 34.3448Z" fill="#4AC8AE" stroke="#4AC8AE" stroke-width="0.6"/>
<path fill-rule="evenodd" clip-rule="evenodd" d="M27.6762 36H35.4762C36.6713 36 37.6429 35.0722 37.6429 33.931V17.3793C37.6429 16.238 36.6713 15.3103 35.4762 15.3103H27.6762C26.4811 15.3103 25.5095 16.238 25.5095 17.3793V33.931C25.5095 35.0722 26.4811 36 27.6762 36ZM26.3762 17.3793C26.3762 16.6949 26.9595 16.1379 27.6762 16.1379H35.4762C36.1929 16.1379 36.7762 16.6949 36.7762 17.3793V33.931C36.7762 34.6154 36.1929 35.1724 35.4762 35.1724H27.6762C26.9595 35.1724 26.3762 34.6154 26.3762 33.931V17.3793Z" fill="#4AC8AE"/>
<path d="M35.4762 35.7H27.6762V36.3H35.4762V35.7ZM37.3429 33.931C37.3429 34.8937 36.5188 35.7 35.4762 35.7V36.3C36.8238 36.3 37.9429 35.2508 37.9429 33.931H37.3429ZM37.3429 17.3793V33.931H37.9429V17.3793H37.3429ZM35.4762 15.6103C36.5188 15.6103 37.3429 16.4166 37.3429 17.3793H37.9429C37.9429 16.0594 36.8238 15.0103 35.4762 15.0103V15.6103ZM27.6762 15.6103H35.4762V15.0103H27.6762V15.6103ZM25.8095 17.3793C25.8095 16.4166 26.6335 15.6103 27.6762 15.6103V15.0103C26.3286 15.0103 25.2095 16.0594 25.2095 17.3793H25.8095ZM25.8095 33.931V17.3793H25.2095V33.931H25.8095ZM27.6762 35.7C26.6335 35.7 25.8095 34.8937 25.8095 33.931H25.2095C25.2095 35.2508 26.3286 36.3 27.6762 36.3V35.7ZM27.6762 15.8379C26.807 15.8379 26.0762 16.5163 26.0762 17.3793H26.6762C26.6762 16.8734 27.1119 16.4379 27.6762 16.4379V15.8379ZM35.4762 15.8379H27.6762V16.4379H35.4762V15.8379ZM37.0762 17.3793C37.0762 16.5163 36.3454 15.8379 35.4762 15.8379V16.4379C36.0404 16.4379 36.4762 16.8734 36.4762 17.3793H37.0762ZM37.0762 33.931V17.3793H36.4762V33.931H37.0762ZM35.4762 35.4724C36.3454 35.4724 37.0762 34.794 37.0762 33.931H36.4762C36.4762 34.4368 36.0404 34.8724 35.4762 34.8724V35.4724ZM27.6762 35.4724H35.4762V34.8724H27.6762V35.4724ZM26.0762 33.931C26.0762 34.794 26.807 35.4724 27.6762 35.4724V34.8724C27.1119 34.8724 26.6762 34.4368 26.6762 33.931H26.0762ZM26.0762 17.3793V33.931H26.6762V17.3793H26.0762Z" fill="#4AC8AE"/>
</svg>

<svg width="49" height="48" fill="none" xmlns="http://www.w3.org/2000/svg"><rect x=".643" width="48" height="48" rx="10" fill="#EDFFF9"/><path d="M12.076 28.308a.424.424 0 01-.433-.413V13.24c0-.684.583-1.241 1.3-1.241h23.4c.717 0 1.3.557 1.3 1.241v4.065a.424.424 0 01-.434.414.424.424 0 01-.433-.414V13.24a.425.425 0 00-.433-.413h-23.4a.425.425 0 00-.434.413v14.654a.424.424 0 01-.433.413zM24.643 36h-4.767a.424.424 0 01-.433-.414c0-.228.194-.414.433-.414h.867c.717 0 1.3-.557 1.3-1.241v-2.069c0-.228.194-.414.433-.414.24 0 .434.186.434.414v2.069a2 2 0 01-.435 1.241h2.168c.24 0 .433.186.433.414a.424.424 0 01-.433.414z" fill="#4AC8AE" stroke="#4AC8AE" stroke-width=".6"/><path d="M25.654 31.862H12.943c-.717 0-1.3-.557-1.3-1.241v-2.483c0-.229.194-.414.433-.414h13.578c.24 0 .433.186.433.414a.424.424 0 01-.433.414H12.509v2.069c0 .227.195.414.434.414h12.71c.24 0 .434.185.434.413a.424.424 0 01-.433.414zm3.756-14.069h4.333a.424.424 0 00.433-.414.424.424 0 00-.433-.413h-4.334a.424.424 0 00-.433.413c0 .229.194.414.433.414zm1.733 16.552h.867a.424.424 0 00.433-.414.424.424 0 00-.433-.414h-.867a.424.424 0 00-.434.414c0 .228.195.414.434.414z" fill="#4AC8AE" stroke="#4AC8AE" stroke-width=".6"/><path fill-rule="evenodd" clip-rule="evenodd" d="M27.676 36h7.8c1.195 0 2.167-.928 2.167-2.069V17.379c0-1.141-.972-2.069-2.167-2.069h-7.8c-1.195 0-2.166.928-2.166 2.07v16.55c0 1.141.971 2.069 2.166 2.069zm-1.3-18.62c0-.685.583-1.242 1.3-1.242h7.8c.717 0 1.3.557 1.3 1.241v16.552c0 .684-.583 1.241-1.3 1.241h-7.8c-.716 0-1.3-.557-1.3-1.241V17.379z" fill="#4AC8AE"/><path d="M35.476 35.7h-7.8v.6h7.8v-.6zm1.867-1.769c0 .963-.824 1.769-1.867 1.769v.6c1.348 0 2.467-1.05 2.467-2.369h-.6zm0-16.552v16.552h.6V17.379h-.6zm-1.867-1.769c1.043 0 1.867.807 1.867 1.77h.6c0-1.32-1.12-2.37-2.467-2.37v.6zm-7.8 0h7.8v-.6h-7.8v.6zm-1.866 1.77c0-.963.824-1.77 1.866-1.77v-.6c-1.347 0-2.466 1.05-2.466 2.37h.6zm0 16.551V17.379h-.6v16.552h.6zm1.866 1.769c-1.042 0-1.866-.806-1.866-1.769h-.6c0 1.32 1.119 2.369 2.466 2.369v-.6zm0-19.862c-.869 0-1.6.678-1.6 1.541h.6c0-.506.436-.941 1-.941v-.6zm7.8 0h-7.8v.6h7.8v-.6zm1.6 1.541c0-.863-.73-1.541-1.6-1.541v.6c.564 0 1 .435 1 .941h.6zm0 16.552V17.379h-.6v16.552h.6zm-1.6 1.541c.87 0 1.6-.678 1.6-1.541h-.6c0 .506-.436.941-1 .941v.6zm-7.8 0h7.8v-.6h-7.8v.6zm-1.6-1.541c0 .863.731 1.541 1.6 1.541v-.6c-.564 0-1-.435-1-.941h-.6zm0-16.552v16.552h.6V17.379h-.6z" fill="#4AC8AE"/></svg>
